!!!OTL: 71d. Graserin und Reiter.
!!!ODT: 1885
!!!ARE: Europa, Mitteleuropa, Deutschland, Dillkreis
!!!SCT: E0071D
!!!TXL: @@DE
!!!YEM: Copyright 1995, estate of Helmut Schaffrath.
**kern	**text
*ICvox	*
*M4/4	*
*met(c)	*
*k[f#]	*
*G:	*
!LO:TX:a:t=Aus dem Dillkreis 1885.	!
{4dd	Es
=1	=1
4g	gieng
4b	ein
4b	Mäd-
4dd	-chen
=2	=2
(4g	gra-
4b/)	.
4b}	-ſen
{4dd	wohl
=3	=3
4.dd	in
8cc	den
4cc	grü-
4b	-nen
=4	=4
(<2dd	Wald,
4a);}	.
{8a	da
8b/	be-
=5	=5
4cc	-geg-
4ee	-net
4ee	ihr
4cc	ein
=6	=6
(4b	Jä-
4dd)	.
4dd}	-ger,
{4b/	der
=7	=7
4a	ihr
4a	ſo
4dd	wohl
8ddL	ge-
8ccJ	.
=8	=8
4b	-fallt,
4dd	ja,
4dd}	ja,
{8dd	da
8dd	be-
=9	=9
4cc	-geg-
4ee	-net
4ee	ihr
4cc	ein
=10	=10
(4b	Jä-
4dd)	.
4dd}	-ger,
{4b/	der
=11	=11
4a	ihr
4a	ſo
4dd	wohl
8ddL	ge-
8ccJ	.
=12	=12
2b	-fallt.
4r}	.
==	==
!!!AGN: erzaehlendes Volks - Lied, Sage, Liebe, Ballade ?
!!!ONB: ESAC (Essen Associative Code) Database: ERK1
!!!AMT: simple quadruple
!!!AIN: vox
!!!EED: Helmut Schaffrath
!!!EEV: 1.0
!!!RDF**kern: < = below
!!!GTL: Liebesgeschichten mit gluecklichem Ausgange
!!!URL-scan: https://rosdok.uni-rostock.de/mcrviewer/recordIdentifier/rosdok_ppn745146120/iview2/phys_0319.iview2?x=-495.6391625615772&y=1269.3898829494137&scale=0.46294184720638515&rotation=0&layout=singlePageLayout&logicalDiv=log_0009
!!!ENC: Anna Maria Matuszewska
!!!EEV: 2024/11/26
*-	*-
